src/lib/packages/icons/src/assets/filled/message-dots-notification.svg

<svg width="24" height="24" viewBox="0 0 24 24" fill="none" xmlns="http://www.w3.org/2000/svg">
<path d="M20.6289 7.44299C20.3549 7.49399 20.0719 7.51102 19.7739 7.49402C18.0479 7.39202 16.6081 5.95098 16.5071 4.22498C16.4901 3.92698 16.5071 3.64495 16.5581 3.37195C16.5941 3.18095 16.4631 3.00098 16.2681 3.00098H6C4 3.00098 3 4.00098 3 6.00098V21.001L6 18.001H18C20 18.001 21 17.001 21 15.001V7.73401C21 7.53801 20.8199 7.40699 20.6289 7.44299ZM8.02002 11.5C7.46802 11.5 7.01489 11.052 7.01489 10.5C7.01489 9.948 7.45801 9.5 8.01001 9.5H8.02002C8.57302 9.5 9.02002 9.948 9.02002 10.5C9.02002 11.052 8.57202 11.5 8.02002 11.5ZM12.02 11.5C11.468 11.5 11.0149 11.052 11.0149 10.5C11.0149 9.948 11.458 9.5 12.01 9.5H12.02C12.573 9.5 13.02 9.948 13.02 10.5C13.02 11.052 12.572 11.5 12.02 11.5ZM16.02 11.5C15.468 11.5 15.0149 11.052 15.0149 10.5C15.0149 9.948 15.458 9.5 16.01 9.5H16.02C16.573 9.5 17.02 9.948 17.02 10.5C17.02 11.052 16.572 11.5 16.02 11.5ZM20 6C18.896 6 18 5.105 18 4C18 2.895 18.896 2 20 2C21.104 2 22 2.895 22 4C22 5.105 21.104 6 20 6Z" fill="currentColor"/>
</svg>

<svg xmlns="http://www.w3.org/2000/svg" width="24" height="24" fill="none"><path fill="currentColor" d="M20.629 7.443a3.54 3.54 0 0 1-.855.051c-1.726-.102-3.166-1.543-3.267-3.269-.017-.298 0-.58.051-.853.036-.191-.095-.371-.29-.371H6c-2 0-3 1-3 3v15l3-3h12c2 0 3-1 3-3V7.734c0-.196-.18-.327-.371-.291ZM8.02 11.5a1.005 1.005 0 0 1-1.005-1c0-.552.443-1 .995-1h.01a1 1 0 1 1 0 2Zm4 0a1.005 1.005 0 0 1-1.005-1c0-.552.443-1 .995-1h.01a1 1 0 1 1 0 2Zm4 0a1.005 1.005 0 0 1-1.005-1c0-.552.443-1 .995-1h.01a1 1 0 1 1 0 2ZM20 6a2 2 0 1 1 0-4 2 2 0 0 1 0 4Z"/></svg>
